images/3233541.svg

<?xml version="1.0" encoding="UTF-8"?>
<svg xmlns="http://www.w3.org/2000/svg" xmlns:xlink="http://www.w3.org/1999/xlink" width="300pt" height="300pt" viewBox="0 0 300 300" version="1.1">
<defs>
<g>
<symbol overflow="visible" id="glyph0-0">
<path style="stroke:none;" d="M 0.59375 2.125 L 0.59375 -8.46875 L 6.59375 -8.46875 L 6.59375 2.125 Z M 1.265625 1.453125 L 5.9375 1.453125 L 5.9375 -7.78125 L 1.265625 -7.78125 Z M 1.265625 1.453125 "/>
</symbol>
<symbol overflow="visible" id="glyph0-1">
<path style="stroke:none;" d="M 4.734375 -7.953125 C 3.867188 -7.953125 3.179688 -7.628906 2.671875 -6.984375 C 2.171875 -6.347656 1.921875 -5.472656 1.921875 -4.359375 C 1.921875 -3.265625 2.171875 -2.394531 2.671875 -1.75 C 3.179688 -1.113281 3.867188 -0.796875 4.734375 -0.796875 C 5.585938 -0.796875 6.265625 -1.113281 6.765625 -1.75 C 7.273438 -2.394531 7.53125 -3.265625 7.53125 -4.359375 C 7.53125 -5.472656 7.273438 -6.347656 6.765625 -6.984375 C 6.265625 -7.628906 5.585938 -7.953125 4.734375 -7.953125 Z M 4.734375 -8.90625 C 5.953125 -8.90625 6.925781 -8.492188 7.65625 -7.671875 C 8.394531 -6.847656 8.765625 -5.742188 8.765625 -4.359375 C 8.765625 -2.984375 8.394531 -1.882812 7.65625 -1.0625 C 6.925781 -0.238281 5.953125 0.171875 4.734375 0.171875 C 3.503906 0.171875 2.519531 -0.238281 1.78125 -1.0625 C 1.039062 -1.882812 0.671875 -2.984375 0.671875 -4.359375 C 0.671875 -5.742188 1.039062 -6.847656 1.78125 -7.671875 C 2.519531 -8.492188 3.503906 -8.90625 4.734375 -8.90625 Z M 4.734375 -8.90625 "/>
</symbol>
<symbol overflow="visible" id="glyph0-2">
<path style="stroke:none;" d="M 1.171875 -8.75 L 2.765625 -8.75 L 6.65625 -1.4375 L 6.65625 -8.75 L 7.796875 -8.75 L 7.796875 0 L 6.203125 0 L 2.328125 -7.3125 L 2.328125 0 L 1.171875 0 Z M 1.171875 -8.75 "/>
</symbol>
<symbol overflow="visible" id="glyph0-3">
<path style="stroke:none;" d="M 1.171875 -8.75 L 2.359375 -8.75 L 2.359375 -5.15625 L 6.65625 -5.15625 L 6.65625 -8.75 L 7.84375 -8.75 L 7.84375 0 L 6.65625 0 L 6.65625 -4.171875 L 2.359375 -4.171875 L 2.359375 0 L 1.171875 0 Z M 1.171875 -8.75 "/>
</symbol>
</g>
</defs>
<g id="surface49145">
<rect x="0" y="0" width="300" height="300" style="fill:rgb(100%,100%,100%);fill-opacity:1;stroke:none;"/>
<path style="fill:none;stroke-width:1.2;stroke-linecap:butt;stroke-linejoin:miter;stroke:rgb(0%,0%,0%);stroke-opacity:1;stroke-miterlimit:10;" d="M 35.25 122.695312 L 40.273438 136.355469 "/>
<path style="fill:none;stroke-width:1.2;stroke-linecap:butt;stroke-linejoin:miter;stroke:rgb(100%,0%,0%);stroke-opacity:1;stroke-miterlimit:10;" d="M 40.273438 136.355469 L 45.292969 150.019531 "/>
<path style="fill:none;stroke-width:1.2;stroke-linecap:butt;stroke-linejoin:miter;stroke:rgb(100%,0%,0%);stroke-opacity:1;stroke-miterlimit:10;" d="M 45.292969 150.019531 L 59.636719 152.503906 "/>
<path style="fill:none;stroke-width:1.2;stroke-linecap:butt;stroke-linejoin:miter;stroke:rgb(0%,0%,0%);stroke-opacity:1;stroke-miterlimit:10;" d="M 59.636719 152.503906 L 73.980469 154.984375 "/>
<path style=" stroke:none;fill-rule:nonzero;fill:rgb(100%,100%,100%);fill-opacity:1;" d="M 40.292969 143.019531 L 50.292969 143.019531 L 50.292969 157.019531 L 40.292969 157.019531 Z M 40.292969 143.019531 "/>
<g style="fill:rgb(100%,0%,0%);fill-opacity:1;">
  <use xlink:href="#glyph0-1" x="40.292969" y="154.158203"/>
</g>
<path style="fill:none;stroke-width:1.2;stroke-linecap:butt;stroke-linejoin:miter;stroke:rgb(0%,0%,0%);stroke-opacity:1;stroke-miterlimit:10;" d="M 73.980469 154.984375 L 92.625 132.625 "/>
<path style="fill:none;stroke-width:1.2;stroke-linecap:butt;stroke-linejoin:miter;stroke:rgb(0%,0%,0%);stroke-opacity:1;stroke-miterlimit:10;" d="M 81.109375 157.136719 L 96.023438 139.246094 "/>
<path style="fill:none;stroke-width:1.2;stroke-linecap:butt;stroke-linejoin:miter;stroke:rgb(0%,0%,0%);stroke-opacity:1;stroke-miterlimit:10;" d="M 84.027344 182.3125 L 73.980469 154.984375 "/>
<path style="fill:none;stroke-width:1.2;stroke-linecap:butt;stroke-linejoin:miter;stroke:rgb(0%,0%,0%);stroke-opacity:1;stroke-miterlimit:10;" d="M 92.625 132.625 L 121.3125 137.589844 "/>
<path style="fill:none;stroke-width:1.2;stroke-linecap:butt;stroke-linejoin:miter;stroke:rgb(0%,0%,0%);stroke-opacity:1;stroke-miterlimit:10;" d="M 121.3125 137.589844 L 131.355469 164.914062 "/>
<path style="fill:none;stroke-width:1.2;stroke-linecap:butt;stroke-linejoin:miter;stroke:rgb(0%,0%,0%);stroke-opacity:1;stroke-miterlimit:10;" d="M 115.886719 142.683594 L 123.921875 164.546875 "/>
<path style="fill:none;stroke-width:1.2;stroke-linecap:butt;stroke-linejoin:miter;stroke:rgb(0%,0%,0%);stroke-opacity:1;stroke-miterlimit:10;" d="M 131.355469 164.914062 L 112.714844 187.277344 "/>
<path style="fill:none;stroke-width:1.2;stroke-linecap:butt;stroke-linejoin:miter;stroke:rgb(0%,0%,0%);stroke-opacity:1;stroke-miterlimit:10;" d="M 112.714844 187.277344 L 84.027344 182.3125 "/>
<path style="fill:none;stroke-width:1.2;stroke-linecap:butt;stroke-linejoin:miter;stroke:rgb(0%,0%,0%);stroke-opacity:1;stroke-miterlimit:10;" d="M 111.011719 180.03125 L 88.0625 176.058594 "/>
<path style="fill:none;stroke-width:1.2;stroke-linecap:butt;stroke-linejoin:miter;stroke:rgb(0%,0%,0%);stroke-opacity:1;stroke-miterlimit:10;" d="M 112.714844 187.277344 L 117.734375 200.9375 "/>
<path style="fill:none;stroke-width:1.2;stroke-linecap:butt;stroke-linejoin:miter;stroke:rgb(0%,0%,100%);stroke-opacity:1;stroke-miterlimit:10;" d="M 117.734375 200.9375 L 122.757812 214.601562 "/>
<path style="fill:none;stroke-width:1.2;stroke-linecap:butt;stroke-linejoin:miter;stroke:rgb(0%,0%,100%);stroke-opacity:1;stroke-miterlimit:10;" d="M 122.757812 214.601562 L 137.101562 217.085938 "/>
<path style="fill:none;stroke-width:1.2;stroke-linecap:butt;stroke-linejoin:miter;stroke:rgb(0%,0%,0%);stroke-opacity:1;stroke-miterlimit:10;" d="M 137.101562 217.085938 L 151.445312 219.566406 "/>
<path style=" stroke:none;fill-rule:nonzero;fill:rgb(100%,100%,100%);fill-opacity:1;" d="M 113.757812 207.601562 L 131.757812 207.601562 L 131.757812 221.601562 L 113.757812 221.601562 Z M 113.757812 207.601562 "/>
<g style="fill:rgb(0%,0%,100%);fill-opacity:1;">
  <use xlink:href="#glyph0-2" x="113.757812" y="218.740234"/>
  <use xlink:href="#glyph0-3" x="122.734375" y="218.740234"/>
</g>
<path style="fill:none;stroke-width:1.2;stroke-linecap:butt;stroke-linejoin:miter;stroke:rgb(0%,0%,0%);stroke-opacity:1;stroke-miterlimit:10;" d="M 151.445312 219.566406 L 156.46875 233.230469 "/>
<path style="fill:none;stroke-width:1.2;stroke-linecap:butt;stroke-linejoin:miter;stroke:rgb(0%,0%,100%);stroke-opacity:1;stroke-miterlimit:10;" d="M 156.46875 233.230469 L 161.488281 246.894531 "/>
<path style="fill:none;stroke-width:1.2;stroke-linecap:butt;stroke-linejoin:miter;stroke:rgb(0%,0%,0%);stroke-opacity:1;stroke-miterlimit:10;" d="M 158.878906 219.9375 L 162.898438 230.867188 "/>
<path style="fill:none;stroke-width:1.2;stroke-linecap:butt;stroke-linejoin:miter;stroke:rgb(0%,0%,100%);stroke-opacity:1;stroke-miterlimit:10;" d="M 162.898438 230.867188 L 166.914062 241.796875 "/>
<path style="fill:none;stroke-width:1.2;stroke-linecap:butt;stroke-linejoin:miter;stroke:rgb(0%,0%,100%);stroke-opacity:1;stroke-miterlimit:10;" d="M 170.089844 197.207031 L 160.765625 208.386719 "/>
<path style="fill:none;stroke-width:1.2;stroke-linecap:butt;stroke-linejoin:miter;stroke:rgb(0%,0%,0%);stroke-opacity:1;stroke-miterlimit:10;" d="M 160.765625 208.386719 L 151.445312 219.566406 "/>
<path style="fill:none;stroke-width:1.2;stroke-linecap:butt;stroke-linejoin:miter;stroke:rgb(0%,0%,100%);stroke-opacity:1;stroke-miterlimit:10;" d="M 161.488281 246.894531 L 175.832031 249.375 "/>
<path style="fill:none;stroke-width:1.2;stroke-linecap:butt;stroke-linejoin:miter;stroke:rgb(0%,0%,0%);stroke-opacity:1;stroke-miterlimit:10;" d="M 175.832031 249.375 L 190.175781 251.859375 "/>
<path style=" stroke:none;fill-rule:nonzero;fill:rgb(100%,100%,100%);fill-opacity:1;" d="M 157.488281 239.894531 L 166.488281 239.894531 L 166.488281 253.894531 L 157.488281 253.894531 Z M 157.488281 239.894531 "/>
<g style="fill:rgb(0%,0%,100%);fill-opacity:1;">
  <use xlink:href="#glyph0-2" x="157.488281" y="251.033203"/>
</g>
<path style="fill:none;stroke-width:1.2;stroke-linecap:butt;stroke-linejoin:miter;stroke:rgb(0%,0%,0%);stroke-opacity:1;stroke-miterlimit:10;" d="M 190.175781 251.859375 L 208.820312 229.496094 "/>
<path style="fill:none;stroke-width:1.2;stroke-linecap:butt;stroke-linejoin:miter;stroke:rgb(0%,0%,0%);stroke-opacity:1;stroke-miterlimit:10;" d="M 186.777344 245.234375 L 201.695312 227.347656 "/>
<path style="fill:none;stroke-width:1.2;stroke-linecap:butt;stroke-linejoin:miter;stroke:rgb(0%,0%,0%);stroke-opacity:1;stroke-miterlimit:10;" d="M 208.820312 229.496094 L 198.777344 202.171875 "/>
<path style="fill:none;stroke-width:1.2;stroke-linecap:butt;stroke-linejoin:miter;stroke:rgb(0%,0%,100%);stroke-opacity:1;stroke-miterlimit:10;" d="M 237.507812 234.460938 L 223.164062 231.980469 "/>
<path style="fill:none;stroke-width:1.2;stroke-linecap:butt;stroke-linejoin:miter;stroke:rgb(0%,0%,0%);stroke-opacity:1;stroke-miterlimit:10;" d="M 223.164062 231.980469 L 208.820312 229.496094 "/>
<path style="fill:none;stroke-width:1.2;stroke-linecap:butt;stroke-linejoin:miter;stroke:rgb(0%,0%,0%);stroke-opacity:1;stroke-miterlimit:10;" d="M 198.777344 202.171875 L 184.433594 199.6875 "/>
<path style="fill:none;stroke-width:1.2;stroke-linecap:butt;stroke-linejoin:miter;stroke:rgb(0%,0%,100%);stroke-opacity:1;stroke-miterlimit:10;" d="M 184.433594 199.6875 L 170.089844 197.207031 "/>
<path style="fill:none;stroke-width:1.2;stroke-linecap:butt;stroke-linejoin:miter;stroke:rgb(0%,0%,0%);stroke-opacity:1;stroke-miterlimit:10;" d="M 194.738281 208.425781 L 183.265625 206.4375 "/>
<path style="fill:none;stroke-width:1.2;stroke-linecap:butt;stroke-linejoin:miter;stroke:rgb(0%,0%,100%);stroke-opacity:1;stroke-miterlimit:10;" d="M 183.265625 206.4375 L 171.789062 204.453125 "/>
<path style="fill:none;stroke-width:1.2;stroke-linecap:butt;stroke-linejoin:miter;stroke:rgb(0%,0%,0%);stroke-opacity:1;stroke-miterlimit:10;" d="M 198.777344 202.171875 L 208.097656 190.988281 "/>
<path style="fill:none;stroke-width:1.2;stroke-linecap:butt;stroke-linejoin:miter;stroke:rgb(0%,0%,100%);stroke-opacity:1;stroke-miterlimit:10;" d="M 208.097656 190.988281 L 217.417969 179.808594 "/>
<path style=" stroke:none;fill-rule:nonzero;fill:rgb(100%,100%,100%);fill-opacity:1;" d="M 166.089844 190.207031 L 175.089844 190.207031 L 175.089844 204.207031 L 166.089844 204.207031 Z M 166.089844 190.207031 "/>
<g style="fill:rgb(0%,0%,100%);fill-opacity:1;">
  <use xlink:href="#glyph0-2" x="166.089844" y="201.345703"/>
</g>
<path style="fill:none;stroke-width:1.2;stroke-linecap:butt;stroke-linejoin:miter;stroke:rgb(0%,0%,100%);stroke-opacity:1;stroke-miterlimit:10;" d="M 217.417969 179.808594 L 231.761719 182.292969 "/>
<path style="fill:none;stroke-width:1.2;stroke-linecap:butt;stroke-linejoin:miter;stroke:rgb(0%,0%,0%);stroke-opacity:1;stroke-miterlimit:10;" d="M 231.761719 182.292969 L 246.105469 184.773438 "/>
<path style="fill:none;stroke-width:1.2;stroke-linecap:butt;stroke-linejoin:miter;stroke:rgb(0%,0%,100%);stroke-opacity:1;stroke-miterlimit:10;" d="M 217.417969 179.808594 L 212.398438 166.144531 "/>
<path style="fill:none;stroke-width:1.2;stroke-linecap:butt;stroke-linejoin:miter;stroke:rgb(0%,0%,0%);stroke-opacity:1;stroke-miterlimit:10;" d="M 212.398438 166.144531 L 207.375 152.480469 "/>
<path style=" stroke:none;fill-rule:nonzero;fill:rgb(100%,100%,100%);fill-opacity:1;" d="M 213.417969 172.808594 L 222.417969 172.808594 L 222.417969 186.808594 L 213.417969 186.808594 Z M 213.417969 172.808594 "/>
<g style="fill:rgb(0%,0%,100%);fill-opacity:1;">
  <use xlink:href="#glyph0-2" x="213.417969" y="183.947266"/>
</g>
<path style="fill:none;stroke-width:1.2;stroke-linecap:butt;stroke-linejoin:miter;stroke:rgb(0%,0%,0%);stroke-opacity:1;stroke-miterlimit:10;" d="M 248.738281 186.96875 L 258.058594 175.785156 "/>
<path style="fill:none;stroke-width:1.2;stroke-linecap:butt;stroke-linejoin:miter;stroke:rgb(100%,0%,0%);stroke-opacity:1;stroke-miterlimit:10;" d="M 258.058594 175.785156 L 267.378906 164.605469 "/>
<path style="fill:none;stroke-width:1.2;stroke-linecap:butt;stroke-linejoin:miter;stroke:rgb(0%,0%,0%);stroke-opacity:1;stroke-miterlimit:10;" d="M 243.476562 182.582031 L 252.796875 171.398438 "/>
<path style="fill:none;stroke-width:1.2;stroke-linecap:butt;stroke-linejoin:miter;stroke:rgb(100%,0%,0%);stroke-opacity:1;stroke-miterlimit:10;" d="M 252.796875 171.398438 L 262.121094 160.21875 "/>
<path style="fill:none;stroke-width:1.2;stroke-linecap:butt;stroke-linejoin:miter;stroke:rgb(0%,0%,0%);stroke-opacity:1;stroke-miterlimit:10;" d="M 246.105469 184.773438 L 256.152344 212.101562 "/>
<path style=" stroke:none;fill-rule:nonzero;fill:rgb(100%,100%,100%);fill-opacity:1;" d="M 259.75 155.410156 L 269.75 155.410156 L 269.75 169.410156 L 259.75 169.410156 Z M 259.75 155.410156 "/>
<g style="fill:rgb(100%,0%,0%);fill-opacity:1;">
  <use xlink:href="#glyph0-1" x="259.75" y="166.548828"/>
</g>
<path style="fill:none;stroke-width:1.2;stroke-linecap:butt;stroke-linejoin:miter;stroke:rgb(0%,0%,0%);stroke-opacity:1;stroke-miterlimit:10;" d="M 256.152344 212.101562 L 246.828125 223.28125 "/>
<path style="fill:none;stroke-width:1.2;stroke-linecap:butt;stroke-linejoin:miter;stroke:rgb(0%,0%,100%);stroke-opacity:1;stroke-miterlimit:10;" d="M 246.828125 223.28125 L 237.507812 234.460938 "/>
<path style="fill:none;stroke-width:1.2;stroke-linecap:butt;stroke-linejoin:miter;stroke:rgb(0%,0%,0%);stroke-opacity:1;stroke-miterlimit:10;" d="M 249.023438 209.949219 L 241.566406 218.894531 "/>
<path style="fill:none;stroke-width:1.2;stroke-linecap:butt;stroke-linejoin:miter;stroke:rgb(0%,0%,100%);stroke-opacity:1;stroke-miterlimit:10;" d="M 241.566406 218.894531 L 234.109375 227.839844 "/>
<path style=" stroke:none;fill-rule:nonzero;fill:rgb(100%,100%,100%);fill-opacity:1;" d="M 233.507812 227.460938 L 242.507812 227.460938 L 242.507812 241.460938 L 233.507812 241.460938 Z M 233.507812 227.460938 "/>
<g style="fill:rgb(0%,0%,100%);fill-opacity:1;">
  <use xlink:href="#glyph0-2" x="233.507812" y="238.599609"/>
</g>
<path style="fill:none;stroke-width:1.2;stroke-linecap:butt;stroke-linejoin:miter;stroke:rgb(0%,0%,0%);stroke-opacity:1;stroke-miterlimit:10;" d="M 207.375 152.480469 L 226.019531 130.121094 "/>
<path style="fill:none;stroke-width:1.2;stroke-linecap:butt;stroke-linejoin:miter;stroke:rgb(0%,0%,0%);stroke-opacity:1;stroke-miterlimit:10;" d="M 226.019531 130.121094 L 215.972656 102.792969 "/>
<path style="fill:none;stroke-width:1.2;stroke-linecap:butt;stroke-linejoin:miter;stroke:rgb(0%,0%,0%);stroke-opacity:1;stroke-miterlimit:10;" d="M 215.972656 102.792969 L 234.617188 80.433594 "/>
<path style="fill:none;stroke-width:1.2;stroke-linecap:butt;stroke-linejoin:miter;stroke:rgb(0%,0%,0%);stroke-opacity:1;stroke-miterlimit:10;" d="M 212.578125 96.171875 L 227.492188 78.28125 "/>
<path style="fill:none;stroke-width:1.2;stroke-linecap:butt;stroke-linejoin:miter;stroke:rgb(0%,0%,0%);stroke-opacity:1;stroke-miterlimit:10;" d="M 187.285156 97.828125 L 215.972656 102.792969 "/>
<path style="fill:none;stroke-width:1.2;stroke-linecap:butt;stroke-linejoin:miter;stroke:rgb(0%,0%,0%);stroke-opacity:1;stroke-miterlimit:10;" d="M 234.617188 80.433594 L 224.574219 53.105469 "/>
<path style="fill:none;stroke-width:1.2;stroke-linecap:butt;stroke-linejoin:miter;stroke:rgb(0%,0%,0%);stroke-opacity:1;stroke-miterlimit:10;" d="M 224.574219 53.105469 L 195.886719 48.140625 "/>
<path style="fill:none;stroke-width:1.2;stroke-linecap:butt;stroke-linejoin:miter;stroke:rgb(0%,0%,0%);stroke-opacity:1;stroke-miterlimit:10;" d="M 220.535156 59.359375 L 197.585938 55.386719 "/>
<path style="fill:none;stroke-width:1.2;stroke-linecap:butt;stroke-linejoin:miter;stroke:rgb(0%,0%,0%);stroke-opacity:1;stroke-miterlimit:10;" d="M 195.886719 48.140625 L 177.242188 70.503906 "/>
<path style="fill:none;stroke-width:1.2;stroke-linecap:butt;stroke-linejoin:miter;stroke:rgb(0%,0%,0%);stroke-opacity:1;stroke-miterlimit:10;" d="M 177.242188 70.503906 L 187.285156 97.828125 "/>
<path style="fill:none;stroke-width:1.2;stroke-linecap:butt;stroke-linejoin:miter;stroke:rgb(0%,0%,0%);stroke-opacity:1;stroke-miterlimit:10;" d="M 184.675781 70.871094 L 192.710938 92.734375 "/>
</g>
</svg>

<svg xmlns="http://www.w3.org/2000/svg" xmlns:xlink="http://www.w3.org/1999/xlink" width="300pt" height="300pt" viewBox="0 0 300 300"><defs><symbol overflow="visible"><path d="M.594 2.125V-8.47h6V2.126zm.672-.672h4.671V-7.78h-4.67zm0 0"/></symbol><symbol overflow="visible" id="a"><path d="M4.734-7.953c-.867 0-1.554.324-2.062.97-.5.635-.75 1.51-.75 2.624 0 1.094.25 1.965.75 2.61.508.637 1.195.953 2.062.953.852 0 1.532-.316 2.032-.953.507-.645.765-1.516.765-2.61 0-1.113-.257-1.988-.764-2.624-.5-.645-1.18-.97-2.032-.97zm0-.953c1.22 0 2.192.414 2.922 1.234.74.824 1.11 1.93 1.11 3.313 0 1.376-.37 2.477-1.11 3.298C6.926-.24 5.953.17 4.734.17c-1.23 0-2.214-.41-2.953-1.234C1.04-1.882.673-2.984.673-4.36c0-1.382.367-2.488 1.11-3.312.738-.82 1.722-1.234 2.952-1.234zm0 0"/></symbol><symbol overflow="visible" id="b"><path d="M1.172-8.75h1.594l3.89 7.313V-8.75h1.14V0H6.204L2.328-7.313V0H1.172zm0 0"/></symbol><symbol overflow="visible" id="c"><path d="M1.172-8.75H2.36v3.594h4.296V-8.75h1.188V0H6.656v-4.172H2.36V0H1.17zm0 0"/></symbol></defs><g><path fill="#fff" d="M0 0h300v300H0z"/><path d="M35.25 122.695l5.023 13.66" stroke-width="1.2" stroke="#000" stroke-miterlimit="10" fill="none"/><path d="M40.273 136.355l5.02 13.665M45.293 150.02l14.344 2.484" stroke-width="1.2" stroke="#f00" stroke-miterlimit="10" fill="none"/><path d="M59.637 152.504l14.343 2.48" stroke-width="1.2" stroke="#000" stroke-miterlimit="10" fill="none"/><path d="M40.293 143.02h10v14h-10zm0 0" fill="#fff"/><use xlink:href="#a" x="40.293" y="154.158" fill="#f00"/><path d="M73.98 154.984l18.645-22.36M81.11 157.137l14.913-17.89M84.027 182.313l-10.047-27.33M92.625 132.625l28.688 4.965M121.313 137.59l10.042 27.324M115.887 142.684l8.035 21.863M131.355 164.914l-18.64 22.363M112.715 187.277l-28.688-4.964M111.012 180.03l-22.95-3.97M112.715 187.277l5.02 13.66" stroke-width="1.2" stroke="#000" stroke-miterlimit="10" fill="none"/><path d="M117.734 200.938l5.024 13.664M122.758 214.602l14.344 2.484" stroke-width="1.2" stroke="#00f" stroke-miterlimit="10" fill="none"/><path d="M137.102 217.086l14.343 2.48" stroke-width="1.2" stroke="#000" stroke-miterlimit="10" fill="none"/><path d="M113.758 207.602h18v14h-18zm0 0" fill="#fff"/><g fill="#00f"><use xlink:href="#b" x="113.758" y="218.74"/><use xlink:href="#c" x="122.734" y="218.74"/></g><path d="M151.445 219.566l5.024 13.664" stroke-width="1.2" stroke="#000" stroke-miterlimit="10" fill="none"/><path d="M156.47 233.23l5.018 13.665" stroke-width="1.2" stroke="#00f" stroke-miterlimit="10" fill="none"/><path d="M158.88 219.938l4.018 10.93" stroke-width="1.2" stroke="#000" stroke-miterlimit="10" fill="none"/><path d="M162.898 230.867l4.016 10.93M170.09 197.207l-9.324 11.18" stroke-width="1.2" stroke="#00f" stroke-miterlimit="10" fill="none"/><path d="M160.766 208.387l-9.32 11.18" stroke-width="1.2" stroke="#000" stroke-miterlimit="10" fill="none"/><path d="M161.488 246.895l14.344 2.48" stroke-width="1.2" stroke="#00f" stroke-miterlimit="10" fill="none"/><path d="M175.832 249.375l14.344 2.484" stroke-width="1.2" stroke="#000" stroke-miterlimit="10" fill="none"/><path d="M157.488 239.895h9v14h-9zm0 0" fill="#fff"/><use xlink:href="#b" x="157.488" y="251.033" fill="#00f"/><path d="M190.176 251.86l18.644-22.364M186.777 245.234l14.918-17.886M208.82 229.496l-10.043-27.324" stroke-width="1.2" stroke="#000" stroke-miterlimit="10" fill="none"/><path d="M237.508 234.46l-14.344-2.48" stroke-width="1.2" stroke="#00f" stroke-miterlimit="10" fill="none"/><path d="M223.164 231.98l-14.344-2.484M198.777 202.172l-14.343-2.484" stroke-width="1.2" stroke="#000" stroke-miterlimit="10" fill="none"/><path d="M184.434 199.688l-14.344-2.48" stroke-width="1.2" stroke="#00f" stroke-miterlimit="10" fill="none"/><path d="M194.738 208.426l-11.472-1.988" stroke-width="1.2" stroke="#000" stroke-miterlimit="10" fill="none"/><path d="M183.266 206.438l-11.477-1.985" stroke-width="1.2" stroke="#00f" stroke-miterlimit="10" fill="none"/><path d="M198.777 202.172l9.32-11.184" stroke-width="1.2" stroke="#000" stroke-miterlimit="10" fill="none"/><path d="M208.098 190.988l9.32-11.18" stroke-width="1.2" stroke="#00f" stroke-miterlimit="10" fill="none"/><path d="M166.09 190.207h9v14h-9zm0 0" fill="#fff"/><use xlink:href="#b" x="166.09" y="201.346" fill="#00f"/><path d="M217.418 179.81l14.344 2.483" stroke-width="1.2" stroke="#00f" stroke-miterlimit="10" fill="none"/><path d="M231.762 182.293l14.343 2.48" stroke-width="1.2" stroke="#000" stroke-miterlimit="10" fill="none"/><path d="M217.418 179.81l-5.02-13.665" stroke-width="1.2" stroke="#00f" stroke-miterlimit="10" fill="none"/><path d="M212.398 166.145l-5.023-13.665" stroke-width="1.2" stroke="#000" stroke-miterlimit="10" fill="none"/><path d="M213.418 172.81h9v14h-9zm0 0" fill="#fff"/><use xlink:href="#b" x="213.418" y="183.947" fill="#00f"/><path d="M248.738 186.97l9.32-11.185" stroke-width="1.2" stroke="#000" stroke-miterlimit="10" fill="none"/><path d="M258.06 175.785l9.32-11.18" stroke-width="1.2" stroke="#f00" stroke-miterlimit="10" fill="none"/><path d="M243.477 182.582l9.32-11.184" stroke-width="1.2" stroke="#000" stroke-miterlimit="10" fill="none"/><path d="M252.797 171.398l9.324-11.18" stroke-width="1.2" stroke="#f00" stroke-miterlimit="10" fill="none"/><path d="M246.105 184.773l10.047 27.33" stroke-width="1.2" stroke="#000" stroke-miterlimit="10" fill="none"/><path d="M259.75 155.41h10v14h-10zm0 0" fill="#fff"/><use xlink:href="#a" x="259.75" y="166.549" fill="#f00"/><path d="M256.152 212.102l-9.324 11.18" stroke-width="1.2" stroke="#000" stroke-miterlimit="10" fill="none"/><path d="M246.828 223.28l-9.32 11.18" stroke-width="1.2" stroke="#00f" stroke-miterlimit="10" fill="none"/><path d="M249.023 209.95l-7.457 8.945" stroke-width="1.2" stroke="#000" stroke-miterlimit="10" fill="none"/><path d="M241.566 218.895l-7.457 8.945" stroke-width="1.2" stroke="#00f" stroke-miterlimit="10" fill="none"/><path d="M233.508 227.46h9v14h-9zm0 0" fill="#fff"/><use xlink:href="#b" x="233.508" y="238.6" fill="#00f"/><path d="M207.375 152.48l18.645-22.36M226.02 130.12l-10.047-27.327M215.973 102.793l18.644-22.36M212.578 96.172l14.914-17.89M187.285 97.828l28.688 4.965M234.617 80.434l-10.043-27.33M224.574 53.105l-28.687-4.964M220.535 59.36l-22.95-3.973M195.887 48.14l-18.645 22.364M177.242 70.504l10.043 27.324M184.676 70.87l8.035 21.864" stroke-width="1.2" stroke="#000" stroke-miterlimit="10" fill="none"/></g></svg>
